X: 26109
T: McGettrick's
R: reel
M: 4/4
K: Gmajor
|:B2AB G3B|ADFD ADFD|BGAF GEED|GEBE GE~E2|
B2AB GBdB|ADFD ADFD|EGFA GABd|fgag gedc:|
|:Bdgd Bdgd|ABAG FDDA|Bdgd Bdgd|egfa gedc|
Bdgd Bdgd|ABAG FDDF|EGFA GABd|fgag gedc:|

